X:547
T:Monymusk
R:Strathspey
B:The Athole Collection
M:C
L:1/8
K:C
e|d<G B>G d>G c<e|d<G B>G (3ABA c>e|d<G B>G B<d d>g|
e>cA>d ~B<GG:|
|:f|g>dB>g d>gB>g|g>dB>g c>gA>f|1 g>de>g d>gB>g|e>cA>d B<GG:|2
g>de>g d<bc<a|B<gA<g B<GG||

